X: 1216
T: An Dro
R: barndance
M: 4/4
K: Aminor
|:AB cA B2 e2|d2 dc B2 cB|AB c/B/A B2 e2|d2 dc B4:|
|:ef ed c2 e2|dc BA E4|A2 cA d2 dc|B2 c2 A4:|

